Humanity/emblems/24/emblem-ubuntuone-unsynchronized.svg

<?xml version="1.0" encoding="UTF-8" standalone="no"?>
<!-- Created with Inkscape (http://www.inkscape.org/) -->

<svg
   xmlns:svg="http://www.w3.org/2000/svg"
   xmlns="http://www.w3.org/2000/svg"
   xmlns:xlink="http://www.w3.org/1999/xlink"
   version="1.0"
   width="24"
   height="24"
   id="svg2475">
  <defs
     id="defs2477">
    <linearGradient
       id="linearGradient3705">
      <stop
         id="stop3707"
         style="stop-color:white;stop-opacity:1"
         offset="0" />
      <stop
         id="stop3713"
         style="stop-color:black;stop-opacity:1"
         offset="0.51867628" />
      <stop
         id="stop3709"
         style="stop-color:black;stop-opacity:1"
         offset="1" />
    </linearGradient>
    <linearGradient
       id="linearGradient4873">
      <stop
         id="stop4875"
         style="stop-color:white;stop-opacity:1"
         offset="0" />
      <stop
         id="stop4877"
         style="stop-color:white;stop-opacity:0"
         offset="1" />
    </linearGradient>
    <linearGradient
       x1="21.628975"
       y1="2.1102102"
       x2="22.245434"
       y2="43.366352"
       id="linearGradient2901"
       xlink:href="#linearGradient4873"
       gradientUnits="userSpaceOnUse"
       gradientTransform="matrix(0.4873978,0,0,0.4781595,-0.345297,0.700712)" />
    <linearGradient
       x1="13.610957"
       y1="9.8964491"
       x2="15.372947"
       y2="22.599676"
       id="linearGradient2904"
       xlink:href="#linearGradient3191"
       gradientUnits="userSpaceOnUse"
       gradientTransform="matrix(0.4873978,0,0,0.4781595,-0.345297,0.700712)" />
    <linearGradient
       x1="15.372947"
       y1="5.0471625"
       x2="15.372947"
       y2="22.599676"
       id="linearGradient2918"
       xlink:href="#linearGradient3191"
       gradientUnits="userSpaceOnUse"
       gradientTransform="matrix(-0.4873978,0,0,-0.4781595,23.842396,23.296914)" />
    <linearGradient
       x1="21.628975"
       y1="2.1102102"
       x2="22.245434"
       y2="43.366352"
       id="linearGradient2926"
       xlink:href="#linearGradient4873"
       gradientUnits="userSpaceOnUse"
       gradientTransform="matrix(-0.4873978,0,0,-0.4781595,23.842396,23.296914)" />
    <linearGradient
       x1="18"
       y1="17"
       x2="21"
       y2="12"
       id="linearGradient3743"
       xlink:href="#linearGradient3705"
       gradientUnits="userSpaceOnUse" />
    <mask
       id="mask3739">
      <rect
         width="22"
         height="12"
         x="1"
         y="12"
         id="rect3741"
         style="fill:url(#linearGradient3743);fill-opacity:1;stroke:none" />
    </mask>
    <linearGradient
       x1="18"
       y1="17"
       x2="21"
       y2="12"
       id="linearGradient3753"
       xlink:href="#linearGradient3705"
       gradientUnits="userSpaceOnUse"
       gradientTransform="translate(-24,-24)" />
    <mask
       id="mask3749">
      <rect
         width="22"
         height="12"
         x="-23"
         y="-12"
         transform="scale(-1,-1)"
         id="rect3751"
         style="fill:url(#linearGradient3753);fill-opacity:1;stroke:none" />
    </mask>
    <linearGradient
       id="linearGradient3191">
      <stop
         id="stop3193"
         style="stop-color:#e9e9e9;stop-opacity:1"
         offset="0" />
      <stop
         id="stop3195"
         style="stop-color:#bcbcbc;stop-opacity:1"
         offset="1" />
    </linearGradient>
  </defs>
  <g
     mask="url(#mask3739)"
     id="g3731">
    <path
       d="M 16.96875,12.78125 C 16.813534,15.319623 13.94201,17.150169 11.6875,17 10.480174,17 9.30456,16.726823 8.4375,15.90625 L 10.84375,13.5 l -9,0 0,9 2.84375,-2.8125 c 1.893804,1.825725 4.079985,2.782319 6.875,2.8125 l 0,-0.03125 c 4.752004,0.168344 10.292725,-3.27161 10.4375,-9.5 l -5.03125,-0.1875 z"
       id="path3372"
       style="fill:url(#linearGradient2918);fill-opacity:1;stroke:#969696;stroke-width:1.00474763;stroke-linecap:butt;stroke-linejoin:round;stroke-miterlimit:4;stroke-opacity:1;stroke-dasharray:none" />
    <path
       d="m 17.84375,12.75 c -0.07062,2.868458 -2.40943,5.343011 -6.1875,5.25 -1.365148,-0.01958 -3.039493,-0.265347 -4.75,-1.875 l 1.5625,-1.625 -5.625,0 0,5.625 2,-1.8125 c 1.8020961,1.972022 3.9362225,3.178557 6.75,3.1875 0.01066,3.4e-5 0.02057,0 0.03125,0 3.634267,0.06435 9.132588,-2.523862 9.28125,-8.5625 L 17.84375,12.75 z"
       id="path3370"
       style="opacity:0.4;fill:none;stroke:url(#linearGradient2926);stroke-width:1.00474763;stroke-linecap:butt;stroke-linejoin:miter;stroke-miterlimit:4;stroke-opacity:1;stroke-dasharray:none" />
  </g>
  <g
     mask="url(#mask3749)"
     id="g3745">
    <path
       d="M 11.9375,1.5 C 7.185496,1.331656 1.644775,4.80286 1.5,11.03125 l 5.03125,0.1875 C 6.686466,8.680377 9.55799,6.849831 11.8125,7 c 1.207326,0 2.38294,0.273177 3.25,1.09375 L 12.65625,10.5 l 9,0 0,-9 -2.84375,2.8125 C 16.918696,2.486775 14.732515,1.530181 11.9375,1.5 z"
       id="path3595"
       style="fill:url(#linearGradient2904);fill-opacity:1;stroke:#969696;stroke-width:1.00474763;stroke-linecap:butt;stroke-linejoin:round;stroke-miterlimit:4;stroke-opacity:1;stroke-dasharray:none" />
    <path
       d="M 11.1875,2.5 C 7.5878629,2.7409187 2.7335003,5.3858513 2.59375,11.0625 l 3.0625,0.15625 c 0.07062,-2.868458 2.40943,-5.343011 6.1875,-5.25 l 0,0.03125 c 1.365148,0.01958 3.039493,0.265347 4.75,1.875 l -1.5625,1.625 5.625,0 0,-5.625 L 18.625,5.65625 C 16.822904,3.6842276 14.720027,2.5089433 11.90625,2.5 11.89635,2.4997853 11.8849,2.5001753 11.875,2.5 11.657142,2.49614 11.417042,2.484637 11.1875,2.5 z"
       id="path3597"
       style="opacity:0.4;fill:none;stroke:url(#linearGradient2901);stroke-width:1.00474763;stroke-linecap:butt;stroke-linejoin:miter;stroke-miterlimit:4;stroke-opacity:1;stroke-dasharray:none" />
  </g>
</svg>

<?xml version="1.0" encoding="UTF-8" standalone="no"?>
<!-- Created with Inkscape (http://www.inkscape.org/) -->
<svg id="svg2475" xmlns="http://www.w3.org/2000/svg" height="24" width="24" version="1.0" xmlns:xlink="http://www.w3.org/1999/xlink">
 <defs id="defs2477">
  <linearGradient id="linearGradient3705">
   <stop id="stop3707" style="stop-color:#fff" offset="0"/>
   <stop id="stop3713" offset=".51868"/>
   <stop id="stop3709" offset="1"/>
  </linearGradient>
  <linearGradient id="linearGradient4873">
   <stop id="stop4875" style="stop-color:#fff" offset="0"/>
   <stop id="stop4877" style="stop-color:#fff;stop-opacity:0" offset="1"/>
  </linearGradient>
  <linearGradient id="linearGradient2901" y2="43.366" xlink:href="#linearGradient4873" gradientUnits="userSpaceOnUse" x2="22.245" gradientTransform="matrix(.48740 0 0 .47816 -.34530 .70071)" y1="2.1102" x1="21.629"/>
  <linearGradient id="linearGradient2904" y2="22.6" xlink:href="#linearGradient3191" gradientUnits="userSpaceOnUse" x2="15.373" gradientTransform="matrix(.48740 0 0 .47816 -.34530 .70071)" y1="9.8964" x1="13.611"/>
  <linearGradient id="linearGradient2918" y2="22.6" xlink:href="#linearGradient3191" gradientUnits="userSpaceOnUse" x2="15.373" gradientTransform="matrix(-.48740 0 0 -.47816 23.842 23.297)" y1="5.0472" x1="15.373"/>
  <linearGradient id="linearGradient2926" y2="43.366" xlink:href="#linearGradient4873" gradientUnits="userSpaceOnUse" x2="22.245" gradientTransform="matrix(-.48740 0 0 -.47816 23.842 23.297)" y1="2.1102" x1="21.629"/>
  <linearGradient id="linearGradient3743" y2="12" xlink:href="#linearGradient3705" gradientUnits="userSpaceOnUse" x2="21" y1="17" x1="18"/>
  <mask id="mask3739">
   <rect id="rect3741" style="fill:url(#linearGradient3743)" height="12" width="22" y="12" x="1"/>
  </mask>
  <linearGradient id="linearGradient3753" y2="12" xlink:href="#linearGradient3705" gradientUnits="userSpaceOnUse" x2="21" gradientTransform="translate(-24,-24)" y1="17" x1="18"/>
  <mask id="mask3749">
   <rect id="rect3751" style="fill:url(#linearGradient3753)" transform="scale(-1)" height="12" width="22" y="-12" x="-23"/>
  </mask>
  <linearGradient id="linearGradient3191">
   <stop id="stop3193" style="stop-color:#e9e9e9" offset="0"/>
   <stop id="stop3195" style="stop-color:#bcbcbc" offset="1"/>
  </linearGradient>
  <linearGradient id="linearGradient2492" y2="1050.9" gradientUnits="userSpaceOnUse" x2="14.5" gradientTransform="translate(0 -1036.4)" y1="1037.9" x1="1.5">
   <stop id="stop2418" style="stop-color:#fff" offset="0"/>
   <stop id="stop2420" style="stop-color:#fff;stop-opacity:0" offset="1"/>
  </linearGradient>
  <linearGradient id="linearGradient2487-569-96" y2="1050.3" gradientUnits="userSpaceOnUse" x2="5.6815" gradientTransform="translate(0 -1036.4)" y1="1038.6" x1="5.6815">
   <stop id="stop2644" style="stop-color:#d2d2d2" offset="0"/>
   <stop id="stop2646" style="stop-color:#9b9b9b" offset="1"/>
  </linearGradient>
  <linearGradient id="linearGradient2489-735-841" y2="1037.4" gradientUnits="userSpaceOnUse" x2="11.375" gradientTransform="translate(0 -1036.4)" y1="1051.4" x1="11.375">
   <stop id="stop2650" style="stop-color:#767676" offset="0"/>
   <stop id="stop2652" style="stop-color:#a8a8a8" offset="1"/>
  </linearGradient>
  <linearGradient id="linearGradient2483" y2="1051.4" gradientUnits="userSpaceOnUse" x2="8" gradientTransform="matrix(.84615 0 0 .84615 1.2308 -875.69)" y1="1037.4" x1="8">
   <stop id="stop2436" style="stop-color:#fff" offset="0"/>
   <stop id="stop2438" style="stop-color:#fff;stop-opacity:0" offset="1"/>
  </linearGradient>
 </defs>
 <g id="g3731" mask="url(#mask3739)" transform="translate(-.34138)">
  <path id="path3372" style="stroke-linejoin:round;stroke:#969696;stroke-width:1.0047;fill:url(#linearGradient2918)" d="m16.969 12.781c-0.155 2.539-3.027 4.369-5.281 4.219-1.208 0-2.3834-0.273-3.2505-1.094l2.4065-2.406h-9v9l2.8438-2.8125c1.8938 1.8257 4.08 2.7823 6.875 2.8125v-0.03125c4.752 0.16834 10.293-3.2716 10.438-9.5l-5.0312-0.1875z"/>
  <path id="path3370" style="opacity:.4;stroke:url(#linearGradient2926);stroke-width:1.0047;fill:none" d="m17.844 12.75c-0.07062 2.8685-2.4094 5.343-6.1875 5.25-1.3651-0.01958-3.0395-0.26535-4.75-1.875l1.5625-1.625h-5.625v5.625l2-1.8125c1.8021 1.972 3.9362 3.1786 6.75 3.1875 0.01066 0.000034 0.02057 0 0.03125 0 3.6343 0.06435 9.1326-2.5239 9.2812-8.5625l-3.062-0.187z"/>
 </g>
 <g id="g3745" mask="url(#mask3749)">
  <path id="path3595" style="stroke-linejoin:round;stroke:#969696;stroke-width:1.0047;fill:url(#linearGradient2904)" d="m11.938 1.5c-4.7525-0.1683-10.293 3.3029-10.438 9.531l5.0312 0.1875c0.1553-2.5376 3.0268-4.3682 5.2808-4.218 1.2073 0 2.3829 0.27318 3.25 1.0938l-2.406 2.4062h9v-9l-2.8438 2.8125c-1.893-1.8257-4.079-2.7823-6.874-2.8125z"/>
  <path id="path3597" style="opacity:.4;stroke:url(#linearGradient2901);stroke-width:1.0047;fill:none" d="m11.188 2.5c-3.6001 0.2409-8.4545 2.8859-8.5942 8.562l3.0625 0.15625c0.07062-2.8685 2.4094-5.343 6.1875-5.25v0.03125c1.3651 0.01958 3.0395 0.26535 4.75 1.875l-1.5625 1.625h5.625v-5.625l-2.031 1.782c-1.802-1.972-3.905-3.1473-6.719-3.1562-0.01-0.0002-0.021 0.0002-0.031 0-0.218-0.0039-0.458-0.0154-0.687 0z"/>
 </g>
 <g id="layer1" transform="translate(9.5 9.5)">
  <rect id="rect3180" style="stroke:url(#linearGradient2492);fill:none" rx="3.0207" ry="3.0207" height="13" width="13" y="2" x="2"/>
  <rect id="rect7169" style="stroke:url(#linearGradient2489-735-841);fill:url(#linearGradient2487-569-96)" rx="2" ry="2" height="11" width="11" y="3" x="3"/>
  <rect id="rect3419" style="opacity:.3;stroke:url(#linearGradient2483);fill:none" rx="1.0365" ry="1.0365" height="9" width="9" y="4" x="4"/>
  <rect id="rect4230" style="opacity:.6" rx="1" ry="1" height="2" width="2" y="10.5" x="7.5"/>
  <rect id="rect4232" style="opacity:.6" rx=".94366" ry="1" height="5" width="2" y="4.5" x="7.5"/>
 </g>
</svg>
